other/MyMail.svg

<svg width="48" height="48" version="1.1" viewBox="0 0 48 48" xmlns="http://www.w3.org/2000/svg">
 <path d="m7 5c-1.108 0-2 0.892-2 2v34c0 1.108 0.892 2 2 2h34c1.108 0 2-0.892 2-2v-34c0-1.108-0.892-2-2-2h-34zm17 7c11.349 0 11.731 0.007687 12.572 0.26758 1.6372 0.50569 2.8779 1.709 3.6016 3.4941 0.27617 0.68129 0.28711 0.92328 0.33203 7.4043 0.026128 3.7696-0.008298 7.1599-0.080078 7.7539-0.02208 0.18269-0.055613 0.35696-0.089843 0.53125l-0.001954 0.34961-0.18164 0.38672c-0.39325 1.2298-1.1313 2.2094-2.1914 2.8945-0.63666 0.4115-0.94021 0.63074-2.0488 0.75586-0.26071 0.02942-0.56942 0.057042-0.94141 0.076171-0.055825 0.003001-0.14396 0.005013-0.20312 0.007813-0.84199 0.03784-2.0066 0.059006-3.6172 0.066406-0.075914 3.67e-4 -0.2344-3.27e-4 -0.3125 0-1.723 0.0072-3.8994 0.005707-6.8945 0.003907l-11.609-0.00586-0.38867-0.14453c-0.072284-0.00985-0.24412-0.016214-0.2793-0.027344-1.0895-0.34455-2.0032-1.0321-2.7715-2.0273-0.015864-0.02004-0.03129-0.040306-0.046875-0.060547-0.11011-0.14574-0.22644-0.27798-0.33008-0.4375-0.70659-1.0875-0.91708-1.9315-0.95312-3.8086-0.027532-1.4339-0.0031473-1.6285 0.24805-1.9688 0.039763-0.053858 0.086772-0.093208 0.12891-0.14258l0.0019532-0.001953c0.058344-0.083287 0.13066-0.15672 0.20898-0.22656 0.96688-0.89523 2.354-0.78217 3.0488 0.35742 0.21982 0.36052 0.26504 0.67446 0.26562 1.8359 8.27e-4 1.63 0.19729 2.168 0.93164 2.5547 0.17237 0.090764 0.55014 0.14175 1.3633 0.17773h10.252 10.186c0.82498-0.034543 1.232-0.081875 1.4004-0.16602 0.1532-0.07653 0.27384-0.14747 0.38086-0.22852l0.095703-0.10352 0.099609-0.10938c0.34189-0.53396 0.35515-2.0025 0.35547-6.8633v-0.49414c-7.4e-4 -2.628-0.011549-4.3612-0.037109-5.4922-0.001322-0.037017-5.54e-4 -0.087297-0.001953-0.12305-0.00292-0.11698-0.008419-0.16455-0.011719-0.26758-0.048075-0.97912-0.1436-1.4284-0.32422-1.6816-0.086992-0.095372-0.18222-0.17819-0.28711-0.26172-0.094549-0.05266-0.2028-0.10022-0.32617-0.15625-0.51482-0.23382-1.1223-0.24609-11.543-0.24609s-11.028 0.01227-11.543 0.24609c-0.7699 0.34967-0.99023 0.88123-0.99023 2.3887 0 0.046172-3.1e-5 0.064722 0 0.10742 0.00287 0.39169 0.02376 0.74822 0.0625 0.97852 0.049102 0.13988 0.13561 0.18426 0.30469 0.24414 0.37283 0.13207 3.1271 1.1307 8.0059 2.9023l2.6973 0.97852c0.010238-8.9e-4 0.097112-0.040922 0.11328-0.044922l1.1562-0.54688c0.69301-0.32698 1.8158-0.85599 2.4941-1.1777 4.7176-2.2376 4.5021-2.1564 5.4668-2.1035 0.48556 0.02663 1.3633 0.9084 1.4785 1.4844 0.11767 0.58833-0.10584 1.3597-0.51172 1.7656-0.38027 0.38026-9.2339 4.6273-9.8574 4.7285-0.29268 0.04749-1.0494-0.16493-2.6113-0.73438-1.2094-0.44092-3.6384-1.3214-5.3984-1.9551-6.3544-2.2878-6.3677-2.293-6.834-2.7969l-0.43359-0.4668v-2.7344c0-0.33956 0.011832-0.41282 0.013672-0.67969 0.003924-0.30501 0.00524-0.64104 0.015625-0.88476 0.026182-0.8907 0.078053-1.451 0.22656-1.8418 0.64969-1.7098 1.9376-2.958 3.5723-3.4629 0.84158-0.25998 1.223-0.26758 12.572-0.26758z" fill="#fff"/>
</svg>

<?xml version="1.0" encoding="UTF-8" standalone="no"?>
<svg
   xmlns:dc="http://purl.org/dc/elements/1.1/"
   xmlns:cc="http://creativecommons.org/ns#"
   xmlns:rdf="http://www.w3.org/1999/02/22-rdf-syntax-ns#"
   xmlns:svg="http://www.w3.org/2000/svg"
   xmlns="http://www.w3.org/2000/svg"
   xmlns:sodipodi="http://sodipodi.sourceforge.net/DTD/sodipodi-0.dtd"
   xmlns:inkscape="http://www.inkscape.org/namespaces/inkscape"
   width="48"
   height="48"
   viewBox="0 0 48 48"
   version="1.1"
   id="svg4"
   sodipodi:docname="MyMail.svg"
   inkscape:version="0.92.3 (2405546, 2018-03-11)">
  <metadata
     id="metadata10">
    <rdf:RDF>
      <cc:Work
         rdf:about="">
        <dc:format>image/svg+xml</dc:format>
        <dc:type
           rdf:resource="http://purl.org/dc/dcmitype/StillImage" />
        <dc:title />
      </cc:Work>
    </rdf:RDF>
  </metadata>
  <defs
     id="defs8" />
  <sodipodi:namedview
     pagecolor="#858585"
     bordercolor="#666666"
     borderopacity="1"
     objecttolerance="10"
     gridtolerance="10"
     guidetolerance="10"
     inkscape:pageopacity="0"
     inkscape:pageshadow="2"
     inkscape:window-width="1920"
     inkscape:window-height="1046"
     id="namedview6"
     showgrid="false"
     inkscape:zoom="13.906433"
     inkscape:cx="26.025784"
     inkscape:cy="28.267856"
     inkscape:window-x="0"
     inkscape:window-y="0"
     inkscape:window-maximized="1"
     inkscape:current-layer="svg4" />
  <path
     d="M 7 5 C 5.892 5 5 5.892 5 7 L 5 41 C 5 42.108 5.892 43 7 43 L 41 43 C 42.108 43 43 42.108 43 41 L 43 7 C 43 5.892 42.108 5 41 5 L 7 5 z M 24 12 C 35.349301 12 35.730682 12.007687 36.572266 12.267578 C 38.209487 12.773264 39.450173 13.976575 40.173828 15.761719 C 40.449999 16.443007 40.460939 16.684995 40.505859 23.166016 C 40.531987 26.935588 40.497561 30.325936 40.425781 30.919922 C 40.403701 31.102614 40.370168 31.276878 40.335938 31.451172 L 40.333984 31.800781 L 40.152344 32.1875 C 39.759096 33.417301 39.021037 34.396856 37.960938 35.082031 C 37.324274 35.493526 37.020728 35.712767 35.912109 35.837891 C 35.651399 35.867311 35.342686 35.894933 34.970703 35.914062 C 34.914878 35.917063 34.826748 35.919075 34.767578 35.921875 C 33.925584 35.959715 32.760958 35.980881 31.150391 35.988281 C 31.074477 35.988648 30.915991 35.987954 30.837891 35.988281 C 29.114867 35.995481 26.938539 35.993988 23.943359 35.992188 L 12.333984 35.986328 L 11.945312 35.841797 C 11.873028 35.831947 11.701196 35.825583 11.666016 35.814453 C 10.576564 35.469904 9.6628322 34.782359 8.8945312 33.787109 C 8.8786672 33.767069 8.8632412 33.746803 8.8476562 33.726562 C 8.7375421 33.580825 8.6212201 33.448577 8.5175781 33.289062 C 7.8109868 32.201558 7.6004951 31.357515 7.5644531 29.480469 C 7.5369211 28.046612 7.5613058 27.851974 7.8125 27.511719 C 7.8522632 27.457861 7.8992723 27.418511 7.9414062 27.369141 C 7.9414062 27.369141 7.9433594 27.367188 7.9433594 27.367188 C 8.0017033 27.283901 8.0740197 27.210465 8.1523438 27.140625 C 9.1192238 26.245392 10.506357 26.358458 11.201172 27.498047 C 11.420987 27.858563 11.466212 28.172507 11.466797 29.333984 C 11.467624 30.963967 11.664089 31.501981 12.398438 31.888672 C 12.570804 31.979436 12.948575 32.030426 13.761719 32.066406 L 24.013672 32.066406 L 34.199219 32.066406 C 35.024198 32.031863 35.431184 31.984531 35.599609 31.900391 C 35.752804 31.823861 35.873449 31.752925 35.980469 31.671875 L 36.076172 31.568359 L 36.175781 31.458984 C 36.51767 30.925029 36.530933 29.456456 36.53125 24.595703 L 36.53125 24.101562 C 36.53051 21.473516 36.519701 19.740381 36.494141 18.609375 C 36.492819 18.572358 36.493587 18.522078 36.492188 18.486328 C 36.489268 18.369344 36.483769 18.321779 36.480469 18.21875 C 36.432394 17.239631 36.336874 16.790378 36.15625 16.537109 C 36.069258 16.441737 35.974032 16.358921 35.869141 16.275391 C 35.774592 16.222731 35.666342 16.175171 35.542969 16.119141 C 35.028144 15.885317 34.420632 15.873047 24 15.873047 C 13.579368 15.873047 12.971856 15.885317 12.457031 16.119141 C 11.687134 16.468814 11.466797 17.000373 11.466797 18.507812 C 11.466797 18.553984 11.466766 18.572534 11.466797 18.615234 C 11.469667 19.006927 11.490557 19.363451 11.529297 19.59375 C 11.578399 19.73363 11.664905 19.778011 11.833984 19.837891 C 12.206817 19.969958 14.961058 20.96862 19.839844 22.740234 L 22.537109 23.71875 C 22.547347 23.71786 22.634221 23.677828 22.650391 23.673828 L 23.806641 23.126953 C 24.499649 22.799974 25.622448 22.270959 26.300781 21.949219 C 31.018384 19.711616 30.802868 19.792803 31.767578 19.845703 C 32.253136 19.872333 33.130899 20.754103 33.246094 21.330078 C 33.36376 21.918411 33.140249 22.689827 32.734375 23.095703 C 32.354109 23.475967 23.500443 27.72304 22.876953 27.824219 C 22.584271 27.871709 21.827504 27.659286 20.265625 27.089844 C 19.056262 26.648927 16.627187 25.768413 14.867188 25.134766 C 8.5127504 22.847001 8.4995118 22.841803 8.0332031 22.337891 L 7.5996094 21.871094 L 7.5996094 19.136719 C 7.5996094 18.797164 7.6114413 18.723895 7.6132812 18.457031 C 7.6172052 18.152021 7.6185212 17.815989 7.6289062 17.572266 C 7.6550879 16.681561 7.7069593 16.121314 7.8554688 15.730469 C 8.5051545 14.020636 9.7930837 12.772471 11.427734 12.267578 C 12.269319 12.0076 12.650699 12 24 12 z "
     id="rect2"
     style="fill:#ffffff" />
</svg>
